StripePaymentSheet/StripePaymentSheet/Resources/StripePaymentSheet.xcassets/Carousel/carousel_card_visa.imageset/visaDark.svg

<svg fill="none" height="40" viewBox="0 0 56 40" width="56" xmlns="http://www.w3.org/2000/svg"><path d="m20.4628 13.2469-5.6763 13.5423h-3.7032l-2.79398-10.8086c-.17061-.6663-.31713-.9092-.83297-1.1902-.84301-.4576-2.23198-.8872-3.45635-1.1521l.08229-.3934h5.96131c.7587 0 1.4431.5058 1.6158 1.3809l1.4752 7.836 3.647-9.2169h3.6812zm14.5098 9.1206c.0161-3.5728-4.9416-3.7715-4.9075-5.3672.01-.4857.4737-1.0016 1.4853-1.1341.5018-.0662 1.8847-.1164 3.4543.6062l.6162-2.8723c-.843-.307-1.9268-.6001-3.2777-.6001-3.4623 0-5.899 1.8406-5.9191 4.476-.0241 1.951 1.7402 3.0368 3.0669 3.6851 1.3649.6644 1.8225 1.0899 1.8165 1.6821-.01.9092-1.0879 1.3106-2.0975 1.3247-1.7602.0281-2.7839-.4757-3.5988-.8551l-.6343 2.9686c.8169.3754 2.3283.7025 3.8959.7186 3.6812.002 6.0878-1.8165 6.0998-4.6325zm9.1447 4.4217h3.2395l-2.8281-13.5423h-2.9906c-.6724 0-1.2405.3914-1.4914.9935l-5.2567 12.5488h3.6771l.7306-2.0232h4.4941zm-3.91-4.7971 1.8446-5.0841 1.0618 5.0841zm-14.7386-8.7452-2.8964 13.5423h-3.5045l2.8984-13.5423z" fill="#fff"/></svg>

<svg width="56" height="40" viewBox="0 0 56 40" fill="none" xmlns="http://www.w3.org/2000/svg">
<path d="M20.4628 13.2469L14.7865 26.7892H11.0833L8.28932 15.9806C8.11871 15.3143 7.97219 15.0714 7.45635 14.7904C6.61334 14.3328 5.22437 13.9032 4 13.6383L4.08229 13.2449H10.0436C10.8023 13.2449 11.4867 13.7507 11.6594 14.6258L13.1346 22.4618L16.7816 13.2449H20.4628V13.2469ZM34.9726 22.3675C34.9887 18.7947 30.031 18.596 30.0651 17.0003C30.0751 16.5146 30.5388 15.9987 31.5504 15.8662C32.0522 15.8 33.4351 15.7498 35.0047 16.4724L35.6209 13.6001C34.7779 13.2931 33.6941 13 32.3432 13C28.8809 13 26.4442 14.8406 26.4241 17.476C26.4 19.427 28.1643 20.5128 29.491 21.1611C30.8559 21.8255 31.3135 22.251 31.3075 22.8432C31.2975 23.7524 30.2196 24.1538 29.21 24.1679C27.4498 24.196 26.4261 23.6922 25.6112 23.3128L24.9769 26.2814C25.7938 26.6568 27.3052 26.9839 28.8728 27C32.554 27.002 34.9606 25.1835 34.9726 22.3675ZM44.1173 26.7892H47.3568L44.5287 13.2469H41.5381C40.8657 13.2469 40.2976 13.6383 40.0467 14.2404L34.79 26.7892H38.4671L39.1977 24.766H43.6918L44.1173 26.7892ZM40.2073 21.9921L42.0519 16.908L43.1137 21.9921H40.2073ZM25.4687 13.2469L22.5723 26.7892H19.0678L21.9662 13.2469H25.4687Z" fill="white"/>
</svg>
